material/.icons/material/shield-key-outline.svg

<svg xmlns="http://www.w3.org/2000/svg" viewBox="0 0 24 24"><path d="M21 11c0 5.55-3.84 10.74-9 12-5.16-1.26-9-6.45-9-12V5l9-4 9 4v6m-9 10c3.75-1 7-5.46 7-9.78V6.3l-7-3.12L5 6.3v4.92C5 15.54 8.25 20 12 21m0-15a3 3 0 013 3c0 1.31-.83 2.42-2 2.83V14h2v2h-2v2h-2v-6.17A2.99 2.99 0 019 9a3 3 0 013-3m0 2a1 1 0 00-1 1 1 1 0 001 1 1 1 0 001-1 1 1 0 00-1-1z"/></svg>

<?xml version="1.0" encoding="UTF-8"?><!DOCTYPE svg PUBLIC "-//W3C//DTD SVG 1.1//EN" "http://www.w3.org/Graphics/SVG/1.1/DTD/svg11.dtd"><svg xmlns="http://www.w3.org/2000/svg" xmlns:xlink="http://www.w3.org/1999/xlink" version="1.1" id="mdi-shield-key-outline" width="24" height="24" viewBox="0 0 24 24"><path d="M21,11C21,16.55 17.16,21.74 12,23C6.84,21.74 3,16.55 3,11V5L12,1L21,5V11M12,21C15.75,20 19,15.54 19,11.22V6.3L12,3.18L5,6.3V11.22C5,15.54 8.25,20 12,21M12,6A3,3 0 0,1 15,9C15,10.31 14.17,11.42 13,11.83V14H15V16H13V18H11V11.83C9.83,11.42 9,10.31 9,9A3,3 0 0,1 12,6M12,8A1,1 0 0,0 11,9A1,1 0 0,0 12,10A1,1 0 0,0 13,9A1,1 0 0,0 12,8Z" /></svg>
